contributed-vectors/xda_feed.svg

<?xml version="1.0" encoding="UTF-8" standalone="no"?>
<svg
   xmlns:dc="http://purl.org/dc/elements/1.1/"
   xmlns:cc="http://creativecommons.org/ns#"
   xmlns:rdf="http://www.w3.org/1999/02/22-rdf-syntax-ns#"
   xmlns:svg="http://www.w3.org/2000/svg"
   xmlns="http://www.w3.org/2000/svg"
   xmlns:sodipodi="http://sodipodi.sourceforge.net/DTD/sodipodi-0.dtd"
   xmlns:inkscape="http://www.inkscape.org/namespaces/inkscape"
   inkscape:export-ydpi="96"
   inkscape:export-xdpi="96"
   inkscape:export-filename="/home/jphilippe/inkscape/icônes/delta-github/png/xda_feed.png"
   sodipodi:docname="xda_feed.svg"
   inkscape:version="1.0.1 (3bc2e813f5, 2020-09-07)"
   version="1.1"
   id="svg4349"
   viewBox="0 0 192 192"
   height="192"
   width="192">
  <defs
     id="defs4351">
    <inkscape:path-effect
       effect="fillet_chamfer"
       id="path-effect876"
       is_visible="true"
       lpeversion="1"
       satellites_param="F,0,0,1,0,0,0,1 @ F,0,0,1,0,0,0,1 @ F,0,1,1,0,0.25,0,1 @ F,0,0,1,0,0,0,1 @ F,0,0,1,0,0,0,1 @ F,0,0,1,0,0,0,1 @ F,0,0,1,0,0,0,1 @ F,0,0,1,0,0,0,1 @ F,0,0,1,0,0,0,1 @ F,0,0,1,0,0,0,1 @ F,0,0,1,0,0,0,1 @ F,0,1,1,0,0.25,0,1 @ F,0,0,1,0,0,0,1 @ F,0,0,1,0,0,0,1 @ F,0,1,1,0,0.25,0,1 @ F,0,0,1,0,0,0,1 @ F,0,0,1,0,0,0,1 @ F,0,1,1,0,0.25,0,1 @ F,0,0,1,0,0,0,1 @ F,0,0,1,0,0,0,1 @ F,0,1,1,0,0.25,0,1 @ F,0,0,1,0,0,0,1"
       unit="px"
       method="auto"
       mode="F"
       radius="0.25"
       chamfer_steps="1"
       flexible="false"
       use_knot_distance="true"
       apply_no_radius="true"
       apply_with_radius="true"
       only_selected="true"
       hide_knots="false" />
    <inkscape:path-effect
       effect="fillet_chamfer"
       id="path-effect1064"
       is_visible="true"
       lpeversion="1"
       satellites_param="F,0,0,1,0,0,0,1 @ F,0,0,1,0,0,0,1 @ F,0,1,1,0,0.25,0,1 @ F,0,0,1,0,0,0,1 @ F,0,0,1,0,0,0,1 @ F,0,0,1,0,0,0,1 @ F,0,0,1,0,0,0,1 @ F,0,0,1,0,0,0,1 @ F,0,0,1,0,0,0,1 @ F,0,0,1,0,0,0,1 @ F,0,0,1,0,0,0,1 @ F,0,1,1,0,0.25,0,1 @ F,0,0,1,0,0,0,1 @ F,0,0,1,0,0,0,1 @ F,0,1,1,0,0.25,0,1 @ F,0,0,1,0,0,0,1 @ F,0,0,1,0,0,0,1 @ F,0,1,1,0,0.25,0,1 @ F,0,0,1,0,0,0,1 @ F,0,0,1,0,0,0,1 @ F,0,1,1,0,0.25,0,1 @ F,0,0,1,0,0,0,1"
       unit="px"
       method="auto"
       mode="F"
       radius="0.25"
       chamfer_steps="1"
       flexible="false"
       use_knot_distance="true"
       apply_no_radius="true"
       apply_with_radius="true"
       only_selected="true"
       hide_knots="false" />
  </defs>
  <sodipodi:namedview
     inkscape:document-rotation="0"
     inkscape:bbox-paths="true"
     inkscape:snap-bbox-edge-midpoints="false"
     inkscape:bbox-nodes="false"
     inkscape:snap-bbox="true"
     inkscape:window-maximized="1"
     inkscape:window-y="0"
     inkscape:window-x="36"
     inkscape:window-height="1052"
     inkscape:window-width="1884"
     units="px"
     showgrid="false"
     inkscape:current-layer="layer2"
     inkscape:document-units="px"
     inkscape:cy="131.78025"
     inkscape:cx="78.925974"
     inkscape:zoom="0.70710682"
     inkscape:pageshadow="2"
     inkscape:pageopacity="0.0"
     borderopacity="1.0"
     bordercolor="#666666"
     pagecolor="#ffffff"
     id="base"
     inkscape:snap-smooth-nodes="true"
     inkscape:snap-midpoints="true" />
  <metadata
     id="metadata4354">
    <rdf:RDF>
      <cc:Work
         rdf:about="">
        <dc:format>image/svg+xml</dc:format>
        <dc:type
           rdf:resource="http://purl.org/dc/dcmitype/StillImage" />
        <dc:title></dc:title>
      </cc:Work>
    </rdf:RDF>
  </metadata>
  <g
     transform="translate(0,-860.36216)"
     id="layer1"
     inkscape:groupmode="layer"
     inkscape:label="Calque 1" />
  <g
     inkscape:label="Calque 2"
     id="layer2"
     inkscape:groupmode="layer">
    <path
       id="rect4160"
       style="fill:#56595b;fill-opacity:1;fill-rule:evenodd;stroke:none"
       d="M 41.779297 31.914062 C 41.047039 31.914062 40.315001 32.194769 39.753906 32.755859 C 34.518595 37.991243 29.284119 43.22748 24.048828 48.462891 C 23.951198 48.560523 23.790984 48.560528 23.693359 48.462891 C 18.458659 43.22755 13.224932 37.99121 7.9902344 32.755859 C 7.8385434 32.604169 7.673334 32.475914 7.5 32.365234 L 7.5 143.51367 L 184.5 143.51367 L 184.5 31.962891 C 183.94918 32.064561 183.42186 32.328149 182.99414 32.755859 C 177.75885 37.991263 172.52432 43.227452 167.28906 48.462891 C 167.19143 48.560523 167.03122 48.560528 166.93359 48.462891 L 151.23047 32.755859 C 150.10828 31.633679 148.30188 31.633679 147.17969 32.755859 C 141.93716 37.999 136.69567 43.243205 131.45312 48.486328 C 131.3555 48.583965 131.19529 48.58396 131.09766 48.486328 C 125.85451 43.243145 120.61231 37.999024 115.36914 32.755859 C 114.24695 31.633679 112.44056 31.633679 111.31836 32.755859 C 106.12056 37.991462 100.85774 43.164843 95.669922 48.410156 C 95.5729 48.508253 95.415985 48.507793 95.318359 48.410156 C 90.100892 43.192075 84.883465 37.97396 79.666016 32.755859 C 78.543829 31.633679 76.735476 31.633679 75.613281 32.755859 C 70.370762 37.99901 65.129242 43.243177 59.886719 48.486328 C 59.789094 48.583965 59.628875 48.583965 59.53125 48.486328 C 54.288738 43.243167 49.047198 37.99902 43.804688 32.755859 C 43.243591 32.194769 42.511555 31.914063 41.779297 31.914062 z " />
    <rect
       ry="2.6903906"
       rx="2.6903906"
       y="79.102692"
       x="31.93807"
       height="6.4309893"
       width="47.124966"
       id="rect4194"
       style="fill:#f5db80;fill-opacity:1;fill-rule:evenodd;stroke:none;stroke-width:0.34341px;stroke-linecap:butt;stroke-linejoin:miter;stroke-opacity:1" />
    <text
       xml:space="preserve"
       style="font-style:normal;font-variant:normal;font-weight:300;font-stretch:normal;font-size:40px;line-height:1.25;font-family:'Now Alt';-inkscape-font-specification:'Now Alt Light';letter-spacing:0px;word-spacing:0px;fill:#f5db80;fill-opacity:1"
       x="97.425827"
       y="106.7274"
       id="text890"><tspan
         sodipodi:role="line"
         id="tspan888"
         x="97.425827"
         y="106.7274">xda</tspan></text>
    <rect
       style="fill:#f5db80;fill-opacity:1;fill-rule:evenodd;stroke:none;stroke-width:0.372198px;stroke-linecap:butt;stroke-linejoin:miter;stroke-opacity:1"
       id="rect846"
       width="55.357159"
       height="6.4309893"
       x="23.674215"
       y="93.452362"
       rx="2.6903906"
       ry="2.6903906" />
    <rect
       ry="2.6903906"
       rx="2.6903906"
       y="107.78885"
       x="39.197857"
       height="6.4309893"
       width="39.920258"
       id="rect848"
       style="fill:#f5db80;fill-opacity:1;fill-rule:evenodd;stroke:none;stroke-width:0.31607px;stroke-linecap:butt;stroke-linejoin:miter;stroke-opacity:1" />
    <path
       d="M 184.5,143.51362 H 7.4999962 v 6.4571 c 0,5.6033 4.5119298,10.1152 10.1152408,10.1152 H 174.38477 c 5.60331,0 10.11523,-4.5119 10.11523,-10.1152 z"
       style="fill:#f5db80;fill-opacity:1;fill-rule:evenodd;stroke:none;stroke-opacity:1"
       id="path858" />
  </g>
  <style
     type="text/css"
     id="style4358">
	.st0{fill:#F59812;}
</style>
</svg>

<svg xmlns="http://www.w3.org/2000/svg" id="svg4349" width="192" height="192" version="1.1"><g id="layer2"><path id="rect4160" d="M41.78 31.914c-.733 0-1.465.28-2.026.842L24.049 48.463a.252.252 0 0 1-.356 0L7.99 32.756a2.883 2.883 0 0 0-.49-.39v111.148h177V31.963a2.856 2.856 0 0 0-1.506.793L167.29 48.463a.252.252 0 0 1-.355 0L151.23 32.756a2.858 2.858 0 0 0-4.05 0l-15.727 15.73a.252.252 0 0 1-.355 0l-15.729-15.73a2.858 2.858 0 0 0-4.05 0c-5.198 5.235-10.461 10.409-15.65 15.654a.247.247 0 0 1-.35 0L79.665 32.756a2.86 2.86 0 0 0-4.053 0l-15.726 15.73a.252.252 0 0 1-.356 0l-15.726-15.73a2.855 2.855 0 0 0-2.026-.842z" style="fill:#56595b;fill-opacity:1;fill-rule:evenodd;stroke:none"/><rect id="rect4194" width="47.125" height="6.431" x="31.938" y="79.103" rx="2.69" ry="2.69" style="fill:#f5db80;fill-opacity:1;fill-rule:evenodd;stroke:none;stroke-width:.34341px;stroke-linecap:butt;stroke-linejoin:miter;stroke-opacity:1"/><text xml:space="preserve" id="text890" x="97.426" y="106.727" style="font-style:normal;font-variant:normal;font-weight:300;font-stretch:normal;font-size:40px;line-height:1.25;font-family:&quot;Now Alt&quot;;-inkscape-font-specification:&quot;Now Alt Light&quot;;letter-spacing:0;word-spacing:0;fill:#f5db80;fill-opacity:1"><tspan id="tspan888" x="97.426" y="106.727">xda</tspan></text><rect id="rect846" width="55.357" height="6.431" x="23.674" y="93.452" rx="2.69" ry="2.69" style="fill:#f5db80;fill-opacity:1;fill-rule:evenodd;stroke:none;stroke-width:.372198px;stroke-linecap:butt;stroke-linejoin:miter;stroke-opacity:1"/><rect id="rect848" width="39.92" height="6.431" x="39.198" y="107.789" rx="2.69" ry="2.69" style="fill:#f5db80;fill-opacity:1;fill-rule:evenodd;stroke:none;stroke-width:.31607px;stroke-linecap:butt;stroke-linejoin:miter;stroke-opacity:1"/><path id="path858" d="M184.5 143.514H7.5v6.457a10.094 10.094 0 0 0 10.115 10.115h156.77A10.094 10.094 0 0 0 184.5 149.97z" style="fill:#f5db80;fill-opacity:1;fill-rule:evenodd;stroke:none;stroke-opacity:1"/></g><style id="style4358" type="text/css">.st0{fill:#f59812}</style></svg>
